app/dist/common/images/citizens-company.svg

<svg height="18" viewBox="0 0 18 18" width="18" xmlns="http://www.w3.org/2000/svg"><path d="m0 0h18v18h-18z" fill="#f0f3fa"/><path d="m12.5 5h-7.5l1-1h7.5zm-7.5 0-1 1v7.5l1-1zm8 8v-7.5l1-1v7.38zm0 0-1 1h-7.5l1-1z" fill="#ef3125"/><path d="m6 6v6h6v-2h-4v-2h4v-2z" fill="#231f1f"/></svg>

<!-- by TradingView --><svg width="18" height="18" viewBox="0 0 18 18" xmlns="http://www.w3.org/2000/svg"><path fill="#F0F3FA" d="M0 0h18v18H0z"/><path d="M12.5 5H5l1-1h7.5l-1 1ZM5 5 4 6v7.5l1-1V5Zm8 8V5.5l1-1v7.38L13 13Zm0 0-1 1H4.5l1-1H13Z" fill="#EF3125"/><path d="M6 6v6h6v-2H8V8h4V6H6Z" fill="#231F1F"/></svg>
